X:1
T:James Gibb editions
T:Allá se me ponga - Ponce
%%score [ 1 2 3 4 ]
L:1/8
Q:1/4=180
M:3/2
K:C
V:1 treble nm="Soprano"
V:2 treble nm="Alto"
V:3 treble-8 nm="Tenor"
V:4 bass nm="Bass"
V:1
"^Allá se me ponga el Sol""^Juan Ponce\n(1480-1521)" D4 | F6 E2 F4 | G8 E4 | C12 | D4 F6 F2 | %5
w: A-|llá se me|pon- ga~~el|Sol|Don- de ten-|
w: |||||
w: |||||
 E4 D8 | D12 | D4 F6 F2 |[M:3/2] E4 D8 | D12 |] D4 | F6 E2 F4 | G4 (E4 E4) | D12 | z8 D4 | %15
w: go~~el a-|mor,|don- de ten-|||A-|llá se me|pu- sie\- *|se|Do|
w: |||go~~el a-|mor.||||||
w: |||||A-|llá se me|a- ba- lla-|se|Do|
 F6 E2 F4 | G4 E8 | D12 || D4 | F6 E2 F4 | G8 E4 | C12 | D4 F8 | E4 D8 | D12 |] %25
w: mis a- mo-|res vie-|se,|An-|tes que me|mu- rie-|se|Con e-|ste do-|lor.|
w: ||||||||||
w: mi a- mor|to- pa-|se,|An-|tes que me|fi- na-|se|Con e-|ste ren-|cor.|
V:2
 A,4 | D6 D2 D4 | D8 B,4 | A,12 | A,4 D6 D2 | ^C4 D8 | D12 | A,4 D6 D2 |[M:3/2] ^C4 D8 | D12 |] %10
w: A-|llá se me|pon- ga~~el|Sol|Don- de ten-|go~~el a-|mor,|don- de ten-|||
w: ||||||||go~~el a-|mor.|
w: ||||||||||
 D4 | D6 C2 D4 | D4 (^C8 | D12) | z8 D4 | D6 C2 D4 | D4 ^C8 | D12 || A,4 | D6 D2 D4 | D8 B,4 | %21
w: A-|llá se me|pu- sie\-||se|Do mis a-|mo- res|vie-|se,|An- tes que|me mu-|
w: |||||||||||
w: A-|llá se me|a- ba-|lla-|se|Do mi a-|mor to-|pa-|se,|An- tes que|me fi-|
 A,12 | A,4 D6 D2 | ^C4 D8 | D12 |] %25
w: rie-|se Con e-|ste do-|lor.|
w: ||||
w: na-|se Con e-|ste ren-|cor.|
V:3
 A4 | A6 G2 A4 | B8 G4 | E12 | F4 A6 A2 | A4 A8 | A12 | F4 A6 A2 |[M:3/2][K:treble-8] A4 A8 | %9
w: A-|llá se me|pon- ga~~el|Sol|Don- de ten-|go~~el a-|mor,|don- de ten-||
w: ||||||||go~~el a-|
w: |||||||||
 A12 |] A4 | A6 A2 A4 | B4 (A8 | A12) | z8 A4 | A6 A2 A4 | B4 A8 | A12 || A4 | A6 G2 A4 | B8 G4 | %21
w: |A-|llá se me|pu- sie\-||se|Do mis a-|mo- res|vie-|se,|An- tes que|me mu-|
w: mor.||||||||||||
w: .|A-|llá se me|a- ba-|lla-|se|Do mi a-|mor to-|pa-|se,|An- tes que|me fi-|
 E12 | F4 A6 A2 | A4 A8 | A12 |] %25
w: rie-|se Con e-|ste do-|lor.|
w: ||||
w: na-|se Con e-|ste ren-|cor.|
V:4
 D,4 | D,6 D,2 D,4 | G,,8 G,,4 | A,,12 | D,4 D,6 D,2 | A,,4 D,8 | D,12 | D,4 D,6 D,2 | %8
w: A-|llá se me|pon- ga~~el|Sol|Don- de ten-|go~~el a-|mor,|don- de ten-|
w: ||||||||
w: ||||||||
[M:3/2] A,,4 D,8 | D,12 |] D,4 | D,6 D,2 D,4 | G,,4 (A,,8 | D,12) | z8 D,4 | D,6 D,2 D,4 | %16
w: ||A-|llá se me|pu- sie\-||se|Do mis a-|
w: go~~el a-|mor.|||||||
w: ||A-|llá se me|a- ba-|lla-|se|Do mi a-|
 G,,4 A,,8 | D,12 || D,4 | D,6 D,2 D,4 | G,,8 G,,4 | A,,12 | D,4 D,6 D,2 | A,,4 D,8 | D,12 |] %25
w: mo- res|vie-|se,|An- tes que|me mu-|rie-|se Con e-|ste do-|lor.|
w: |||||||||
w: mor to-|pa-|se,|An- tes que|me fi-|na-|se Con e-|ste ren-|cor.|

